web/packages/design/src/ResourceIcon/assets/grafana.svg

<svg width="72" height="72" viewBox="0 0 72 72" fill="none" xmlns="http://www.w3.org/2000/svg">
<g clip-path="url(#clip0_6726_30099)">
<path d="M68.6579 31.862C68.5302 30.6489 68.3386 29.2441 67.9555 27.7117C67.5724 26.1792 66.9339 24.5191 66.1038 22.7312C65.2099 21.0072 64.1244 19.1555 62.6558 17.4315C62.0811 16.7292 61.4426 16.0906 60.8041 15.3883C61.8257 11.3656 59.5909 7.85377 59.5909 7.85377C55.696 7.59836 53.2696 9.06695 52.3757 9.70547C52.248 9.64162 52.0564 9.57777 51.9287 9.51391C51.2902 9.25851 50.5878 9.0031 49.8855 8.74769C49.1831 8.55614 48.4807 8.30073 47.7783 8.17303C47.076 7.98147 46.3097 7.85377 45.5435 7.72606C45.4158 7.72606 45.2881 7.66221 45.1604 7.66221C43.5003 2.29866 38.6475 0 38.6475 0C33.0924 3.5757 32.007 8.36458 32.007 8.36458C32.007 8.36458 32.007 8.49229 31.9431 8.61999C31.6238 8.68384 31.3684 8.81154 31.0492 8.8754C30.6661 9.0031 30.2191 9.1308 29.836 9.32236C29.4529 9.51391 29.0059 9.64162 28.6228 9.83317C27.7927 10.2163 27.0265 10.5994 26.1964 11.0464C25.4302 11.4933 24.664 11.9403 23.9616 12.4511C23.8339 12.3872 23.7701 12.3234 23.7701 12.3234C16.2994 9.45006 9.65884 12.8981 9.65884 12.8981C9.08417 20.8795 12.6599 25.86 13.3622 26.7539C13.1707 27.2647 13.043 27.7117 12.8514 28.2225C12.2768 30.0103 11.8936 31.862 11.6382 33.7776C11.5744 34.033 11.5744 34.3523 11.5105 34.6077C4.61455 37.9918 2.57129 45.0155 2.57129 45.0155C8.31795 51.6561 15.0862 52.0392 15.0862 52.0392C15.9163 53.5716 16.9379 55.0402 18.0234 56.3811C18.4704 56.9558 18.9812 57.4666 19.492 58.0413C17.3849 64.0433 19.8113 69.0876 19.8113 69.0876C26.2603 69.343 30.4745 66.2781 31.3684 65.5758C32.007 65.7673 32.6455 65.9589 33.284 66.1504C35.2634 66.6612 37.3067 66.9805 39.2861 67.0444C39.7969 67.0444 40.3077 67.0444 40.8185 67.0444H41.0739H41.2655H41.5847H41.904C44.905 71.3863 50.2686 71.9609 50.2686 71.9609C54.0358 67.9383 54.2912 64.0433 54.2912 63.1494C54.2912 63.1494 54.2912 63.1494 54.2912 63.0856C54.2912 63.0217 54.2912 62.9578 54.2912 62.9578C54.2912 62.894 54.2912 62.8301 54.2912 62.7663C55.0574 62.1916 55.8237 61.617 56.5899 60.9784C58.1223 59.6376 59.3994 58.0413 60.5487 56.3811C60.6764 56.2534 60.7403 56.0619 60.868 55.9342C65.146 56.1896 68.1471 53.2524 68.1471 53.2524C67.4447 48.7828 64.8906 46.6118 64.3798 46.2287C64.3798 46.2287 64.3798 46.2287 64.316 46.1648L64.2521 46.101L64.1883 46.0371C64.1883 45.7817 64.2521 45.5263 64.2521 45.2071C64.316 44.6962 64.316 44.2493 64.316 43.7385V43.3554V43.1638V43.0999C64.316 42.9722 64.316 43.0361 64.316 42.9722V42.653V42.2699C64.316 42.1422 64.316 42.0145 64.316 41.8868C64.316 41.7591 64.316 41.6314 64.2521 41.5037L64.1883 41.1205L64.1244 40.7374C64.0605 40.2266 63.9328 39.7797 63.869 39.2688C63.422 37.3533 62.6558 35.5016 61.698 33.9053C60.6764 32.2451 59.4632 30.8404 58.0585 29.5634C56.6537 28.3502 55.1213 27.3286 53.4612 26.6262C51.801 25.86 50.1409 25.413 48.4169 25.2215C47.5868 25.0937 46.6929 25.0937 45.8628 25.0937H45.5435H45.4797H45.352H45.2243H44.905C44.7773 25.0937 44.6496 25.0937 44.5858 25.0937C44.1388 25.1576 43.6918 25.2214 43.3087 25.2853C41.5847 25.6046 39.9884 26.2431 38.5837 27.0732C37.179 27.9032 35.9658 28.9887 34.9441 30.2019C33.9225 31.4151 33.1563 32.6921 32.6455 34.0968C32.1347 35.4377 31.8154 36.9063 31.7515 38.2472C31.7515 38.5665 31.7515 38.9496 31.7515 39.2688C31.7515 39.3327 31.7515 39.4604 31.7515 39.5243V39.7797C31.7515 39.9712 31.7515 40.0989 31.8154 40.2905C31.8792 40.9928 32.007 41.6314 32.1985 42.2699C32.5816 43.5469 33.1563 44.6962 33.9225 45.7179C34.6887 46.7395 35.5188 47.5057 36.4766 48.1442C37.4344 48.7828 38.3921 49.2297 39.4138 49.549C40.4354 49.8682 41.3932 49.9959 42.2871 49.9321C42.4148 49.9321 42.5425 49.9321 42.6063 49.9321C42.6702 49.9321 42.7341 49.9321 42.7979 49.9321C42.8618 49.9321 42.9256 49.9321 42.9895 49.9321C43.1172 49.9321 43.181 49.9321 43.3087 49.9321H43.3726H43.4364C43.5003 49.9321 43.5641 49.9321 43.628 49.9321C43.7557 49.9321 43.8834 49.8682 43.9472 49.8682C44.0749 49.8682 44.1388 49.8044 44.2665 49.8044C44.458 49.7405 44.7135 49.6767 44.905 49.6128C45.2881 49.4851 45.6712 49.2936 46.0543 49.1659C46.4375 48.9743 46.7567 48.7828 47.0121 48.5912C47.076 48.5273 47.2037 48.4635 47.2675 48.3996C47.5868 48.1442 47.6506 47.6973 47.3952 47.378C47.1398 47.1226 46.7567 47.0588 46.4375 47.1865C46.3736 47.2503 46.3097 47.2503 46.182 47.3142C45.9266 47.4419 45.6074 47.5696 45.352 47.6334C45.0327 47.6973 44.7135 47.825 44.3942 47.8888C44.2026 47.8888 44.0749 47.9527 43.8834 47.9527C43.8195 47.9527 43.6918 47.9527 43.628 47.9527C43.5641 47.9527 43.4364 47.9527 43.3726 47.9527C43.3087 47.9527 43.181 47.9527 43.1172 47.9527C42.9895 47.9527 42.9256 47.9527 42.7979 47.9527H42.7341H42.6702C42.6063 47.9527 42.6063 47.9527 42.5425 47.9527C42.4786 47.9527 42.3509 47.9527 42.2871 47.8888C41.5847 47.7611 40.8185 47.5696 40.1161 47.2503C39.4138 46.9311 38.7114 46.4841 38.1367 45.9094C37.4982 45.3348 36.9874 44.6962 36.5404 43.93C36.0935 43.1638 35.8381 42.3337 35.7104 41.5037C35.6465 41.0567 35.5827 40.6097 35.6465 40.1628C35.6465 40.0351 35.6465 39.9074 35.6465 39.7797V39.7158V39.652C35.6465 39.5881 35.6465 39.5242 35.6465 39.4604C35.6465 39.205 35.7104 39.0134 35.7742 38.758C36.0935 36.8425 37.0512 34.9908 38.5198 33.586C38.9029 33.2029 39.2861 32.8837 39.733 32.6283C40.18 32.309 40.6269 32.0536 41.0739 31.862C41.5209 31.6705 42.0317 31.4789 42.5425 31.3512C43.0533 31.2235 43.5641 31.0958 44.0749 31.0958C44.3303 31.0958 44.5858 31.032 44.8412 31.032C44.905 31.032 44.9689 31.032 45.0327 31.032H45.2243H45.352H45.4158H45.6074C46.1821 31.0958 46.7567 31.1597 47.2675 31.2874C48.353 31.5428 49.4385 31.9259 50.4601 32.5006C52.5034 33.6499 54.2274 35.3739 55.249 37.481C55.7598 38.5026 56.1429 39.652 56.3345 40.8651C56.3983 41.1844 56.3983 41.4398 56.4622 41.7591V41.9506V42.1422C56.4622 42.206 56.4622 42.2699 56.4622 42.3337C56.4622 42.3976 56.4622 42.4614 56.4622 42.5253V42.7168V42.9084C56.4622 43.0361 56.4622 43.2915 56.4622 43.4192C56.4622 43.7385 56.3983 44.0577 56.3983 44.377C56.3345 44.6962 56.3345 45.0155 56.2706 45.3348C56.2068 45.654 56.1429 45.9733 56.0791 46.2925C55.9514 46.9311 55.696 47.5057 55.5044 48.1442C55.0574 49.3574 54.4189 50.5068 53.6527 51.5284C52.1203 53.6355 50.0132 55.3595 47.6506 56.445C46.4375 56.9558 45.2243 57.4027 43.9472 57.5943C43.3087 57.722 42.6702 57.7859 42.0317 57.7859H41.904H41.7763H41.5847H41.2655H41.0739H41.0101C40.6908 57.7859 40.3077 57.7859 39.9884 57.722C38.5837 57.5943 37.2428 57.3389 35.9019 56.9558C34.561 56.5727 33.284 56.0619 32.0708 55.4233C29.6444 54.1463 27.4735 52.2946 25.7495 50.1875C24.9194 49.102 24.1532 47.9527 23.5147 46.7395C22.8762 45.5263 22.4292 44.2493 22.0461 42.9722C21.663 41.6952 21.4714 40.3543 21.4076 39.0134V38.758V38.6942V38.6303V38.5026V38.3111V38.2472V38.1834V38.0557V37.7364V37.6725V37.5448C21.4076 37.3533 21.4076 37.2256 21.4076 37.034C21.4076 36.3955 21.4714 35.6931 21.5991 34.9908C21.663 34.2884 21.7907 33.6499 21.9184 32.9475C22.0461 32.2451 22.2376 31.6066 22.4292 30.9043C22.8123 29.5634 23.2593 28.2863 23.8339 27.0732C24.9833 24.6468 26.4519 22.4758 28.1758 20.7518C28.6228 20.3049 29.0698 19.9218 29.5806 19.5386C29.7721 19.3471 30.2191 18.964 30.7299 18.6447C31.2407 18.3255 31.7515 18.0062 32.3262 17.7508C32.5816 17.6231 32.837 17.4954 33.1563 17.3677C33.284 17.3038 33.4117 17.24 33.6033 17.1761C33.731 17.1123 33.8587 17.0484 34.0502 16.9846C34.6249 16.7292 35.1995 16.5376 35.7742 16.3461C35.9019 16.2822 36.0935 16.2822 36.2212 16.2183C36.3489 16.1545 36.5404 16.1545 36.6681 16.0906C36.9874 16.0268 37.2428 15.9629 37.5621 15.8352C37.6898 15.7714 37.8813 15.7714 38.009 15.7075C38.1367 15.7075 38.3283 15.6437 38.456 15.6437C38.5837 15.6437 38.7752 15.5798 38.903 15.5798L39.1584 15.516L39.4138 15.4521C39.5415 15.4521 39.733 15.3883 39.8607 15.3883C40.0523 15.3883 40.18 15.3244 40.3715 15.3244C40.4992 15.3244 40.7547 15.2606 40.8824 15.2606C41.0101 15.2606 41.0739 15.2606 41.2016 15.1967H41.3932H41.5209H41.6486C41.8401 15.1967 41.9678 15.1967 42.1594 15.1329H42.4148H42.4786H42.6063C42.7341 15.1329 42.9256 15.1329 43.0533 15.1329C43.628 15.1329 44.2026 15.1329 44.7773 15.1329C45.9266 15.1967 47.076 15.3244 48.1615 15.516C50.3324 15.8991 52.4395 16.6015 54.2912 17.5592C56.1429 18.4532 57.8669 19.6025 59.2717 20.8157C59.3355 20.8795 59.4632 20.9434 59.5271 21.0711C59.5909 21.1349 59.7186 21.1988 59.7825 21.3265C59.974 21.4542 60.1017 21.6458 60.2933 21.7735C60.4848 21.9012 60.6125 22.0927 60.8041 22.2204C60.9318 22.412 61.1234 22.5397 61.2511 22.7312C61.8896 23.3697 62.4643 24.0721 62.9751 24.7106C63.9967 26.0515 64.8268 27.3924 65.4653 28.6694C65.5291 28.7333 65.5291 28.7971 65.593 28.9249C65.6568 28.9887 65.6568 29.0526 65.7207 29.1803C65.7845 29.308 65.8484 29.4995 65.9761 29.6272C66.0399 29.7549 66.1038 29.9465 66.1677 30.0742C66.2315 30.2019 66.2954 30.3934 66.3592 30.5211C66.6146 31.0958 66.8062 31.6705 66.9977 32.2451C67.317 33.1391 67.5085 33.9053 67.7001 34.5438C67.7639 34.7992 68.0194 34.9908 68.2748 34.9908C68.594 34.9908 68.7856 34.7354 68.7856 34.4161C68.7217 33.6499 68.7217 32.8198 68.6579 31.862Z" fill="url(#paint0_linear_6726_30099)"/>
</g>
<defs>
<linearGradient id="paint0_linear_6726_30099" x1="35.6784" y1="88.1861" x2="35.6784" y2="22.5132" gradientUnits="userSpaceOnUse">
<stop stop-color="#FCEE1F"/>
<stop offset="1" stop-color="#F15B2A"/>
</linearGradient>
<clipPath id="clip0_6726_30099">
<rect width="72" height="72" fill="white"/>
</clipPath>
</defs>
</svg>

<svg xmlns="http://www.w3.org/2000/svg" width="72" height="72" fill="none" viewBox="0 0 72 72"><g clip-path="url(#a)"><path fill="url(#b)" d="M68.658 31.862c-.128-1.213-.32-2.618-.703-4.15s-1.021-3.193-1.851-4.98c-.894-1.725-1.98-3.576-3.448-5.3-.575-.703-1.213-1.341-1.852-2.044 1.022-4.022-1.213-7.534-1.213-7.534-3.895-.256-6.321 1.213-7.215 1.851-.128-.063-.32-.127-.447-.191-.639-.255-1.341-.51-2.044-.766-.702-.192-1.404-.447-2.107-.575-.702-.192-1.468-.32-2.234-.447-.128 0-.256-.064-.384-.064C43.5 2.3 38.648 0 38.648 0c-5.556 3.576-6.641 8.365-6.641 8.365s0 .127-.064.255c-.32.064-.575.192-.894.255-.383.128-.83.256-1.213.447-.383.192-.83.32-1.213.511a43 43 0 0 0-2.427 1.213c-.766.447-1.532.894-2.234 1.405a.8.8 0 0 1-.192-.128c-7.47-2.873-14.111.575-14.111.575-.575 7.982 3 12.962 3.703 13.856-.191.51-.319.958-.51 1.468-.575 1.788-.958 3.64-1.214 5.556-.064.255-.064.574-.127.83-6.896 3.384-8.94 10.408-8.94 10.408 5.747 6.64 12.515 7.023 12.515 7.023.83 1.533 1.852 3.001 2.937 4.342.447.575.958 1.086 1.469 1.66-2.107 6.002.32 11.047.32 11.047 6.448.255 10.662-2.81 11.556-3.512l1.916.574c1.98.511 4.023.83 6.002.894h2.618c3.001 4.342 8.365 4.917 8.365 4.917 3.767-4.023 4.022-7.918 4.022-8.812v-.383a55 55 0 0 0 2.299-1.788c1.532-1.34 2.81-2.937 3.959-4.597.127-.128.191-.32.319-.447 4.278.256 7.28-2.682 7.28-2.682-.703-4.47-3.257-6.64-3.768-7.023l-.064-.064-.064-.064-.064-.064c0-.255.064-.51.064-.83.064-.51.064-.958.064-1.468v-1.852c0-.128 0-.256-.064-.383l-.064-.383-.064-.384c-.063-.51-.191-.957-.255-1.468a19 19 0 0 0-2.171-5.364c-1.022-1.66-2.235-3.065-3.64-4.342-1.404-1.213-2.937-2.234-4.597-2.937a16.1 16.1 0 0 0-5.044-1.405c-.83-.127-1.724-.127-2.554-.127h-1.278c-.446.064-.893.127-1.276.191-1.724.32-3.32.958-4.725 1.788s-2.618 1.916-3.64 3.129-1.788 2.49-2.299 3.895c-.51 1.34-.83 2.81-.894 4.15v1.533c0 .191 0 .319.064.51a10 10 0 0 0 .384 1.98 10.9 10.9 0 0 0 1.724 3.448 10.2 10.2 0 0 0 2.554 2.426 11.3 11.3 0 0 0 2.937 1.405q1.532.48 2.873.383h1.341c.128 0 .255-.064.32-.064.127 0 .19-.064.319-.064.191-.064.447-.127.638-.191.383-.128.766-.32 1.15-.447q.575-.288.957-.575c.064-.064.192-.127.255-.191a.72.72 0 0 0 .128-1.022.89.89 0 0 0-.958-.191c-.063.063-.127.063-.255.127a4.4 4.4 0 0 1-.83.32c-.32.063-.638.191-.958.255-.191 0-.32.064-.51.064h-1.342c-.063 0-.191 0-.255-.064-.702-.128-1.468-.32-2.17-.639-.703-.319-1.406-.766-1.98-1.34a8 8 0 0 1-1.597-1.98c-.447-.766-.702-1.596-.83-2.426-.063-.447-.127-.894-.063-1.341v-.703c0-.255.063-.447.127-.702a9.34 9.34 0 0 1 2.746-5.172c.383-.383.766-.702 1.213-.958q.67-.478 1.34-.766a10 10 0 0 1 1.47-.51c.51-.128 1.021-.256 1.532-.256.255 0 .51-.064.766-.064h.766c.575.064 1.15.128 1.66.255 1.086.256 2.171.639 3.193 1.214 2.043 1.149 3.767 2.873 4.789 4.98a11.7 11.7 0 0 1 1.085 3.384c.064.32.064.575.128.894v1.66c0 .32-.064.639-.064.958-.064.32-.064.639-.127.958l-.192.957c-.128.64-.383 1.214-.575 1.852a13.4 13.4 0 0 1-1.851 3.384 15.5 15.5 0 0 1-6.002 4.917c-1.214.51-2.427.958-3.704 1.15a9.7 9.7 0 0 1-1.915.19H41.01c-.32 0-.702 0-1.022-.063a22 22 0 0 1-4.086-.766 20 20 0 0 1-3.831-1.533c-2.427-1.277-4.597-3.128-6.321-5.236-.83-1.085-1.597-2.234-2.235-3.447-.639-1.214-1.086-2.49-1.469-3.768s-.575-2.618-.638-3.959v-1.979c0-.639.063-1.34.191-2.043.064-.703.192-1.341.32-2.044.127-.702.319-1.34.51-2.043.383-1.34.83-2.618 1.405-3.83 1.15-2.427 2.618-4.598 4.342-6.322.447-.447.894-.83 1.405-1.213a7.2 7.2 0 0 1 1.149-.894c.51-.32 1.021-.639 1.596-.894.256-.128.511-.256.83-.383a3 3 0 0 1 .447-.192c.128-.064.256-.128.447-.191.575-.256 1.15-.447 1.724-.639.128-.064.32-.064.447-.128.128-.064.32-.064.447-.127a4.7 4.7 0 0 0 .894-.256c.128-.064.32-.064.447-.128.128 0 .32-.063.447-.063.128 0 .32-.064.447-.064l.255-.064.256-.064c.127 0 .319-.064.447-.064.191 0 .319-.064.51-.064.128 0 .384-.063.511-.063.128 0 .192 0 .32-.064h.447c.191 0 .319 0 .51-.064h2.618a29 29 0 0 1 3.384.383c2.171.383 4.279 1.086 6.13 2.043a23.2 23.2 0 0 1 4.98 3.257c.065.064.192.127.256.255.064.064.192.128.255.255.192.128.32.32.511.447.192.128.32.32.511.447.128.192.32.32.447.511.639.639 1.213 1.341 1.724 1.98a25 25 0 0 1 2.49 3.958c.064.064.064.128.128.256.064.064.064.128.128.255.063.128.127.32.255.447.064.128.128.32.192.447.063.128.127.32.191.447.256.575.447 1.15.639 1.724.319.894.51 1.66.702 2.299.064.255.32.447.575.447.319 0 .51-.256.51-.575-.063-.766-.063-1.596-.127-2.554"/></g><defs><linearGradient id="b" x1="35.678" x2="35.678" y1="88.186" y2="22.513" gradientUnits="userSpaceOnUse"><stop stop-color="#fcee1f"/><stop offset="1" stop-color="#f15b2a"/></linearGradient><clipPath id="a"><path fill="#fff" d="M0 0h72v72H0z"/></clipPath></defs></svg>
